src/soup-can-outline.svg

<?xml version="1.0" encoding="utf-8"?>
<!-- Generated by IcoMoon.io -->
<!DOCTYPE svg PUBLIC "-//W3C//DTD SVG 1.1//EN" "http://www.w3.org/Graphics/SVG/1.1/DTD/svg11.dtd">
<svg version="1.1" xmlns="http://www.w3.org/2000/svg" xmlns:xlink="http://www.w3.org/1999/xlink" width="512" height="512" viewBox="0 0 512 512">
<path fill="#000000" d="M255.82 144c88.269 0 159.824-28.654 159.824-64s-71.555-64-159.824-64c-88.268 0-159.823 28.654-159.823 64s71.555 64 159.823 64zM255.82 33.041c69.729 0 126.26 19.234 126.26 42.959s-56.531 42.959-126.26 42.959c-69.729 0-126.258-19.234-126.258-42.959s56.529-42.959 126.258-42.959z"></path>
<path fill="#000000" d="M256.57 160c-88.269 0-160.567-28.654-160.567-64 0 0-0.003 33.999 7.997 40v240c0 35.346 63.732 64 152 64s152-28.654 152-64v-240c8-7.438 7.708-34.853 7.817-40-1.152 34.946-71.701 64-159.247 64zM376 375.588c0 2.232-7.961 10.682-29.423 18.688-23.724 8.85-55.765 13.724-90.304 13.724s-66.83-4.874-90.554-13.725c-21.462-8.005-28.719-16.455-29.719-18.687v-79.564c18 9.721 42.742 17.115 72.156 20.979l1.588 0.237c5.743 20.068 24.192 34.76 46.082 34.76s40.338-14.689 46.084-34.754l1.755-0.244c29.415-3.863 54.335-11.258 72.335-20.979v79.565zM376 264.023c-18 9.831-43.476 17.284-73.325 21.11l-2.61 0.195c-7.274-17.231-24.342-29.328-44.206-29.328-19.867 0-36.919 12.102-44.19 29.34l-2.514-0.206c-29.85-3.826-55.155-11.279-73.155-21.11v-91.265c34 12.491 75.923 19.241 120.499 19.241 44.166 0 86.501-6.713 119.501-18.955v90.978z"></path>
<path fill="#000000" d="M256.272 464c0.293 0 0.583-0.006 0.876-0.007-0.351 0.001-0.699 0.005-1.051 0.005 0.059 0 0.117 0.002 0.175 0.002z"></path>
<path fill="#000000" d="M408 415.999v-15.999c0 36.001-63.432 64-152 64-88.569 0-152-28.654-152-64v15.999l-7.739 16.001c0 6.994 2.938 13.725 8.117 20.025 20.992 25.537 81.093 43.975 151.895 43.975 70.801 0 130.87-18.438 151.863-43.975 5.18-6.301 7.923-13.031 7.923-20.025l-8.059-16.001z"></path>
</svg>

<?xml version="1.0" encoding="utf-8"?>
<!-- Generator: Adobe Illustrator 16.2.1, SVG Export Plug-In . SVG Version: 6.00 Build 0)  -->
<!DOCTYPE svg PUBLIC "-//W3C//DTD SVG 1.1//EN" "http://www.w3.org/Graphics/SVG/1.1/DTD/svg11.dtd">
<svg version="1.1" id="Layer_1" xmlns="http://www.w3.org/2000/svg" xmlns:xlink="http://www.w3.org/1999/xlink" x="0px" y="0px"
	 width="512px" height="512px" viewBox="0 0 512 512" enable-background="new 0 0 512 512" xml:space="preserve">
<g>
	<path d="M255.82,144c88.269,0,159.824-28.654,159.824-64S344.089,16,255.82,16C167.552,16,95.997,44.654,95.997,80
		S167.552,144,255.82,144z M255.82,33.041c69.729,0,126.26,19.234,126.26,42.959s-56.531,42.959-126.26,42.959
		c-69.729,0-126.258-19.234-126.258-42.959S186.091,33.041,255.82,33.041z"/>
	<path d="M256.57,160c-88.269,0-160.567-28.654-160.567-64c0,0-0.003,33.999,7.997,40v240c0,35.346,63.732,64,152,64
		c88.269,0,152-28.654,152-64V136c8-7.438,7.708-34.853,7.817-40C414.665,130.946,344.116,160,256.57,160z M376,375.588
		c0,2.232-7.961,10.682-29.423,18.688C322.853,403.126,290.812,408,256.273,408c-34.539,0-66.83-4.874-90.554-13.725
		C144.257,386.27,137,377.82,136,375.588v-79.564c18,9.721,42.742,17.115,72.156,20.979l1.588,0.237
		C215.487,337.308,233.936,352,255.826,352c21.89,0,40.338-14.689,46.084-34.754l1.755-0.244
		C333.08,313.139,358,305.744,376,296.023V375.588z M376,264.023c-18,9.831-43.476,17.284-73.325,21.11l-2.61,0.195
		C292.791,268.097,275.723,256,255.859,256c-19.867,0-36.919,12.102-44.19,29.34l-2.514-0.206
		c-29.85-3.826-55.155-11.279-73.155-21.11v-91.265C170,185.25,211.923,192,256.499,192C300.665,192,343,185.287,376,173.045
		V264.023z"/>
	<g>
		<path d="M274.002,463.58"/>
		<path d="M256.272,464c0.293,0,0.583-0.006,0.876-0.007c-0.351,0.001-0.699,0.005-1.051,0.005
			C256.156,463.998,256.214,464,256.272,464z"/>
		<path d="M408,415.999V400c0,36.001-63.432,64-152,64c-88.569,0-152-28.654-152-64v15.999L96.261,432
			c0,6.994,2.938,13.725,8.117,20.025C125.37,477.562,185.471,496,256.273,496c70.801,0,130.87-18.438,151.863-43.975
			c5.18-6.301,7.923-13.031,7.923-20.025L408,415.999z"/>
	</g>
</g>
</svg>
